svgs/duotone/chart-simple.svg

<svg xmlns="http://www.w3.org/2000/svg" viewBox="0 0 448 512"><!--! Font Awesome Pro 6.6.0 by @fontawesome - https://fontawesome.com License - https://fontawesome.com/license (Commercial License) Copyright 2024 Fonticons, Inc. --><defs><style>.fa-secondary{opacity:.4}</style></defs><path class="fa-secondary" d="M160 80c0-26.5 21.5-48 48-48l32 0c26.5 0 48 21.5 48 48l0 352c0 26.5-21.5 48-48 48l-32 0c-26.5 0-48-21.5-48-48l0-352z"/><path class="fa-primary" d="M368 96c-26.5 0-48 21.5-48 48l0 288c0 26.5 21.5 48 48 48l32 0c26.5 0 48-21.5 48-48l0-288c0-26.5-21.5-48-48-48l-32 0zM48 224c-26.5 0-48 21.5-48 48L0 432c0 26.5 21.5 48 48 48l32 0c26.5 0 48-21.5 48-48l0-160c0-26.5-21.5-48-48-48l-32 0z"/></svg>

<svg xmlns="http://www.w3.org/2000/svg" viewBox="0 0 448 512"><!--! Font Awesome Pro 6.4.0 by @fontawesome - https://fontawesome.com License - https://fontawesome.com/license (Commercial License) Copyright 2023 Fonticons, Inc. --><defs><style>.fa-secondary{opacity:.4}</style></defs><path class="fa-primary" d="M368 96c-26.5 0-48 21.5-48 48V432c0 26.5 21.5 48 48 48h32c26.5 0 48-21.5 48-48V144c0-26.5-21.5-48-48-48H368zM48 224c-26.5 0-48 21.5-48 48V432c0 26.5 21.5 48 48 48H80c26.5 0 48-21.5 48-48V272c0-26.5-21.5-48-48-48H48z"/><path class="fa-secondary" d="M160 80c0-26.5 21.5-48 48-48h32c26.5 0 48 21.5 48 48V432c0 26.5-21.5 48-48 48H208c-26.5 0-48-21.5-48-48V80z"/></svg>
